src/content/resume/images/socilyzer.svg

<svg width="128" height="64" viewBox="0 0 128 64" fill="none" xmlns="http://www.w3.org/2000/svg">
<path d="M43.7299 35.4252C42.2368 35.4252 40.9228 34.9275 39.7681 34.2307L39.2107 36.3211C40.3853 37.0378 42.0377 37.4758 43.6901 37.4758C46.6166 37.4758 48.4283 35.8632 48.4283 33.5936C48.4283 31.2245 46.4972 30.3685 44.6258 29.8509C42.9137 29.393 41.7988 28.9948 41.7988 27.9795C41.7988 27.1234 42.4359 26.5062 43.8892 26.5062C45.0638 26.5062 46.4574 26.9243 47.5523 27.5813L48.1496 25.5307C46.9551 24.8538 45.5615 24.4358 43.8693 24.4358C41.102 24.4358 39.4098 25.909 39.4098 28.1188C39.4098 30.5676 41.4803 31.3639 43.272 31.8616C45.1036 32.3593 46.0393 32.7376 46.0393 33.7728C46.0393 34.7682 45.0837 35.4252 43.7299 35.4252Z" fill="currentColor"/>
<path d="M59.3408 32.5783C59.3408 29.5522 57.4097 27.6808 54.7021 27.6808C51.9946 27.6808 49.944 29.5721 49.944 32.5982C49.944 35.6442 51.895 37.4758 54.5827 37.4758C57.2703 37.4758 59.3408 35.5845 59.3408 32.5783ZM57.0115 32.5982C57.0115 34.3701 56.1753 35.5646 54.6623 35.5646C53.1293 35.5646 52.2534 34.3303 52.2534 32.5783C52.2534 30.8065 53.0895 29.5721 54.6225 29.5721C56.1355 29.5721 57.0115 30.8264 57.0115 32.5982Z" fill="currentColor"/>
<path d="M68.7166 36.7193L68.3383 34.8081C67.6216 35.266 66.7456 35.5248 65.79 35.5248C64.2372 35.5248 63.182 34.4298 63.182 32.5584C63.182 30.7866 64.0978 29.6319 65.79 29.6319C66.6461 29.6319 67.5221 29.8907 68.2786 30.3685L68.7763 28.4772C67.9401 27.9795 66.8651 27.7007 65.6108 27.7007C62.7241 27.7007 60.7731 29.6319 60.7731 32.6181C60.7731 35.6243 62.5449 37.4758 65.5312 37.4758C66.7655 37.4758 67.9202 37.1971 68.7166 36.7193Z" fill="currentColor"/>
<path d="M73.2901 24.9136C73.2901 24.0774 72.7724 23.5001 71.8367 23.5001C70.921 23.5001 70.4033 24.0774 70.4033 24.9136C70.4033 25.7696 70.921 26.3271 71.8367 26.3271C72.7724 26.3271 73.2901 25.7696 73.2901 24.9136ZM73.0113 37.1772V27.7207L70.6621 28.0591V37.1772H73.0113Z" fill="currentColor"/>
<path d="M77.8718 37.1772V23.5598L75.5226 23.8783V37.1772H77.8718Z" fill="currentColor"/>
<path d="M88.6053 27.9994H86.0968L83.9069 34.5692L81.6174 27.9994H79.089L82.6725 37.0577L82.2744 38.1129C81.7767 39.3671 81.4183 39.6657 80.7414 39.6657C80.2636 39.6657 79.8256 39.4865 79.2881 39.2277L78.5913 41.1589C79.3279 41.4973 80.0844 41.6964 80.9206 41.6964C82.6128 41.6964 83.6481 40.9399 84.5638 38.4314L85.1014 36.998L88.6053 27.9994Z" fill="currentColor"/>
<path d="M96.7604 37.1772V35.1664H91.9426L96.7604 29.5721V27.9994H89.1355V29.9902H93.7542L88.9563 35.5646V37.1772H96.7604Z" fill="currentColor"/>
<path d="M100.119 33.0362C100.119 33.0362 106.112 32.9566 106.132 32.9566C106.251 32.5584 106.331 31.9213 106.331 31.4236C106.331 29.174 104.977 27.7007 102.548 27.7007C99.8006 27.7007 97.8098 29.6916 97.8098 32.6779C97.8098 35.6044 99.7608 37.4758 102.707 37.4758C103.942 37.4758 105.156 37.1971 106.032 36.7193L105.733 34.7682C104.897 35.2859 103.842 35.6044 102.867 35.6044C101.234 35.6044 100.219 34.5891 100.119 33.0959V33.0362ZM100.179 31.6625C100.298 30.5277 101.075 29.4726 102.369 29.4726C103.583 29.4726 104.121 30.249 104.121 31.4833C104.121 31.5033 104.121 31.6028 104.121 31.6426L100.179 31.6625Z" fill="currentColor"/>
<path d="M110.631 31.5033C111.248 30.3884 112.005 29.8708 112.821 29.8708C113.259 29.8708 113.697 29.9902 114.135 30.2291L114.653 28.1188C114.155 27.8202 113.578 27.7007 113.02 27.7007C111.945 27.7007 111.209 28.2383 110.631 29.2138V27.7207L108.282 28.0591V37.1772H110.631V31.5033Z" fill="currentColor"/>
<path fill-rule="evenodd" clip-rule="evenodd" d="M23.666 25.3448C21.6428 25.939 20.9287 28.4675 22.3534 29.9924C24.1388 31.9033 27.2918 30.6853 27.2918 28.0846C27.2918 26.2044 25.4579 24.8186 23.666 25.3448ZM16.2511 27.9155C14.1029 28.4477 13.2891 30.8833 14.709 32.5304C15.5211 33.4725 16.6065 33.7219 18.1115 33.3126C19.9938 32.8006 21.0896 33.5037 21.56 35.5255C21.7729 36.4404 21.956 36.8336 22.3736 37.2732C23.6912 38.6598 25.9481 38.4072 26.9217 36.7641C27.1082 36.4494 27.1992 36.1675 27.4151 35.2364C27.8145 33.5138 29.0051 32.8333 30.7777 33.3148C32.3763 33.749 33.623 33.4024 34.3704 32.3162C36.0834 29.8264 33.3536 26.7772 30.675 28.1886C29.8902 28.6021 29.4184 29.2972 29.1723 30.4023C28.701 32.5196 27.5548 33.2565 25.6143 32.6897C24.8578 32.4687 24.0543 32.4685 23.2964 32.6891C21.4077 33.2386 20.2006 32.5173 19.7844 30.5905C19.3472 28.5663 17.9363 27.4981 16.2511 27.9155Z" fill="currentColor"/>
</svg>

<svg xmlns="http://www.w3.org/2000/svg" width="128" height="64" fill="none" viewBox="0 0 128 64"><path fill="currentColor" d="M43.73 35.425c-1.493 0-2.807-.497-3.962-1.194l-.557 2.09c1.174.717 2.827 1.155 4.48 1.155 2.926 0 4.737-1.613 4.737-3.882 0-2.37-1.93-3.226-3.802-3.743-1.712-.458-2.827-.856-2.827-1.871 0-.857.637-1.474 2.09-1.474 1.175 0 2.568.418 3.663 1.075l.598-2.05c-1.195-.677-2.588-1.095-4.28-1.095-2.768 0-4.46 1.473-4.46 3.683 0 2.449 2.07 3.245 3.862 3.743 1.832.497 2.767.876 2.767 1.91 0 .996-.955 1.653-2.31 1.653ZM59.34 32.578c0-3.026-1.93-4.897-4.638-4.897-2.707 0-4.758 1.891-4.758 4.917 0 3.046 1.951 4.878 4.639 4.878 2.687 0 4.758-1.892 4.758-4.898Zm-2.329.02c0 1.772-.836 2.967-2.349 2.967-1.533 0-2.409-1.235-2.409-2.987 0-1.772.837-3.006 2.37-3.006 1.513 0 2.389 1.254 2.389 3.026ZM68.717 36.72l-.379-1.912c-.716.458-1.592.717-2.548.717-1.553 0-2.608-1.095-2.608-2.967 0-1.771.916-2.926 2.608-2.926.856 0 1.732.259 2.489.736l.497-1.89c-.836-.498-1.91-.777-3.165-.777-2.887 0-4.838 1.93-4.838 4.917 0 3.006 1.772 4.858 4.758 4.858 1.234 0 2.39-.279 3.186-.757ZM73.29 24.914c0-.837-.518-1.414-1.453-1.414-.916 0-1.434.577-1.434 1.414 0 .856.518 1.413 1.434 1.413.935 0 1.453-.557 1.453-1.413Zm-.279 12.263v-9.456l-2.349.338v9.118h2.35ZM77.872 37.177V23.56l-2.35.318v13.3h2.35ZM88.605 28h-2.508l-2.19 6.57-2.29-6.57H79.09l3.584 9.058-.399 1.055c-.497 1.254-.856 1.553-1.533 1.553-.477 0-.915-.18-1.453-.438l-.697 1.93c.737.34 1.493.538 2.33.538 1.692 0 2.727-.756 3.643-3.265l.537-1.433 3.504-8.999ZM96.76 37.177v-2.01h-4.817l4.817-5.595V28h-7.625v1.991h4.62l-4.799 5.575v1.612h7.804ZM100.119 33.036l6.013-.08c.119-.398.199-1.035.199-1.532 0-2.25-1.354-3.723-3.783-3.723-2.747 0-4.738 1.99-4.738 4.977 0 2.926 1.95 4.798 4.897 4.798 1.235 0 2.449-.279 3.325-.757l-.299-1.95c-.836.517-1.891.835-2.866.835-1.633 0-2.648-1.015-2.748-2.508v-.06Zm.06-1.373c.119-1.135.896-2.19 2.19-2.19 1.214 0 1.752.776 1.752 2.01v.16l-3.942.02ZM110.631 31.503c.617-1.115 1.374-1.632 2.19-1.632.438 0 .876.12 1.314.358l.518-2.11c-.498-.299-1.075-.418-1.633-.418-1.075 0-1.811.537-2.389 1.513V27.72l-2.349.338v9.118h2.349v-5.674Z"/><path fill="currentColor" fill-rule="evenodd" d="M23.666 25.345c-2.023.594-2.737 3.123-1.313 4.647 1.786 1.911 4.939.693 4.939-1.907 0-1.88-1.834-3.266-3.626-2.74Zm-7.415 2.57c-2.148.533-2.962 2.968-1.542 4.615.812.942 1.898 1.192 3.402.783 1.883-.512 2.979.19 3.449 2.212.213.915.396 1.309.814 1.748a2.861 2.861 0 0 0 4.548-.509c.186-.315.277-.597.493-1.528.4-1.722 1.59-2.403 3.363-1.921 1.598.434 2.845.087 3.592-.999 1.713-2.49-1.016-5.539-3.695-4.127-.785.413-1.257 1.108-1.503 2.213-.471 2.118-1.617 2.855-3.558 2.288a4.138 4.138 0 0 0-2.318 0c-1.888.549-3.095-.173-3.512-2.1-.437-2.024-1.848-3.092-3.533-2.674Z" clip-rule="evenodd"/></svg>
